ui_kit/lib/assets/icons/speaker_state_off.svg

<svg width="24" height="24" viewBox="0 0 24 24" fill="none" xmlns="http://www.w3.org/2000/svg">
<path fill-rule="evenodd" clip-rule="evenodd" d="M10.5659 5.0905C10.8836 5.24318 11.0856 5.56443 11.0856 5.91688V18.7531C11.0856 19.1056 10.8836 19.4268 10.5659 19.5795C10.2483 19.7322 9.87119 19.6892 9.59597 19.4691L5.26275 16.0025H1.91687C1.4105 16.0025 1 15.592 1 15.0856V9.58438C1 9.078 1.4105 8.6675 1.91687 8.6675H5.26275L9.59597 5.20092C9.87119 4.98075 10.2483 4.93782 10.5659 5.0905ZM9.25187 7.82455L6.15714 10.3003C5.99456 10.4304 5.79257 10.5013 5.58437 10.5013H2.83375V14.1687H5.58437C5.79257 14.1687 5.99456 14.2396 6.15714 14.3697L9.25187 16.8454V7.82455ZM21.8196 8.93606C22.1776 9.29413 22.1776 9.87466 21.8196 10.2327L19.7173 12.335L21.8196 14.4373C22.1776 14.7954 22.1776 15.3759 21.8196 15.734C21.4615 16.092 20.881 16.092 20.5229 15.734L18.4206 13.6317L16.3183 15.734C15.9603 16.092 15.3797 16.092 15.0217 15.734C14.6636 15.3759 14.6636 14.7954 15.0217 14.4373L17.124 12.335L15.0217 10.2327C14.6636 9.87466 14.6636 9.29413 15.0217 8.93606C15.3797 8.578 15.9603 8.578 16.3183 8.93606L18.4206 11.0384L20.5229 8.93606C20.881 8.578 21.4615 8.578 21.8196 8.93606Z" fill="white"/>
</svg>

<svg xmlns="http://www.w3.org/2000/svg" width="24" height="24" fill="none" viewBox="0 0 24 24"><path fill="#fff" fill-rule="evenodd" d="M10.566 5.09c.318.153.52.474.52.827v12.836a.917.917 0 0 1-1.49.716l-4.333-3.466H1.917A.917.917 0 0 1 1 15.086V9.584c0-.506.41-.916.917-.916h3.346L9.596 5.2a.917.917 0 0 1 .97-.11ZM9.252 7.825 6.157 10.3a.917.917 0 0 1-.573.201h-2.75v3.668h2.75c.209 0 .41.07.573.2l3.095 2.476v-9.02ZM21.82 8.936a.917.917 0 0 1 0 1.297l-2.103 2.102 2.103 2.102a.917.917 0 0 1-1.297 1.297l-2.102-2.102-2.103 2.102a.917.917 0 0 1-1.296-1.297l2.102-2.102-2.102-2.102a.917.917 0 1 1 1.296-1.297l2.103 2.102 2.102-2.102a.917.917 0 0 1 1.297 0Z" clip-rule="evenodd"/></svg>
